X:1
T:[ID 2-45a]
T:[ID 2-45a]
T:Bezeichnung standardisiert: Polonaise Polonaise In dieser Quelle auch als: Polon\"aise In dieser Quelle auch als: Polon\"aise Tantz
T:Urheber unbekannt Datum in der hier transkribierten schriftlichen Quelle: 1767
C:Urheber unbekannt
C:Datum in der hier transkribierten schriftlichen Quelle: 1767
L:1/8
M:3/4
K:D
V:1 bass 
V:1
 D,DD,DD,D | D,DG,,G,F,,F, | D,2 DCB,^G, | A,E, C,B,, A,,2 :: A,,A,A,,A,A,,A, | A,,A,A,,A,D,,D, | %6
 A,,A,A,,A,D,,D, | F,,F,G,,G,E,,E, | A,,A, D,A,,F,,D,, :| %9

